X:1
T:Title
%%score ( 1 2 ) { 3 | 4 }
L:1/8
Q:1/4=110
M:4/4
K:F
V:1 treble nm="Grand Piano, Staff 1"
V:2 treble 
V:3 bass nm="Choir Pad, Greenwich, CM"
V:4 bass 
V:1
 [DF]2 [DB]2 [Fd]2 [Fc]2 | F2 [GB]2 [EG]2 [FA]2 | [FB]2 G-[DG] CB, [B,C]2 | [A,F]2 [B,D]6 | %4
w: By~William~Richardson,~1729 * * *||||
 [CF]2 [B,D]2 [CF]2 B-[EB] | [FA]2 [FG]2 [Ec]2 [FA]2 | [FB]2 [_EG]2 _ed [Gc]2 | BA [FB]6- | %8
w: ||||
 [FB]2 z2 z4 |] %9
w: |
V:2
 x8 | x8 | z2 ._E2 E2 z2 | x8 | z4 z2 .D2 | x8 | z4 G2 z2 | F2 z2 z4 | x8 |] %9
V:3
 B,2 B,2 B,2 C2 | D2[K:treble] D2 C2 C2 | D2 B,2[K:bass] G,2 F,2 | F,2 F,6 | %4
 A,2[K:treble] D2 C2 B,2 | C2 C2 C2 C2 | B,2 B,2 CB,C[K:treble]_E | DC D6- | D2 z2 z4 |] %9
V:4
 B,,2 B,,2 z2 A,2 | B,2 G,2 C,2 F,2 | B,,2 _E,2 E,2 z2 | F,,2 B,,6 | F,2 B,2 A,2 G,2 | %5
 F,2 C,2 C,2 F,2 | D,2 _E,2 C,D, E,2 | F,2 B,,6- | B,,2 z2 z4 |] %9

